svg/vector_square_plus.svg

<svg xmlns="http://www.w3.org/2000/svg" viewBox="0 0 24 24"><path d="M13 19c0-.3 0-.7.1-1H8v-2H6V8h2V6h8v2h2v5.1c.3-.1.7-.1 1-.1s.7 0 1 .1V8h2V2h-6v2H8V2H2v6h2v8H2v6h6v-2h5.1c-.1-.3-.1-.7-.1-1m5-15h2v2h-2zM4 4h2v2H4zm2 16H4v-2h2zm14-5v3h3v2h-3v3h-2v-3h-3v-2h3v-3z"/></svg>

<svg xmlns="http://www.w3.org/2000/svg" id="mdi-vector-square-plus" viewBox="0 0 24 24"><path d="M13 19C13 18.7 13 18.3 13.1 18H8V16H6V8H8V6H16V8H18V13.1C18.3 13 18.7 13 19 13C19.3 13 19.7 13 20 13.1V8H22V2H16V4H8V2H2V8H4V16H2V22H8V20H13.1C13 19.7 13 19.3 13 19M18 4H20V6H18V4M4 4H6V6H4V4M6 20H4V18H6V20M20 15V18H23V20H20V23H18V20H15V18H18V15H20Z" /></svg>
